X:27
T:Brian O'Lynn (x3) / The Cock and the Hen (x3) / The Woods of the Old Limerick (x3)
R:Jig
M:6/8
Q:3/8=120
K:Ador
A3 A3 | A3 A3 ||
%
|: cBc A2G | EcB cde | dcA A2G | cde fed
 | cBc A2G | EcB cde | dcA AGE | GED D3 :|
|: g2g ged | cAB c2d | eaa age | ed^c def
 | g2g ged | cAB cde | fed cAG | EAA A3 :|
%
|: cBc A2G | EcB cde | dcA A2G | cde fed
 | cBc A2G | EcB cde | dcA AGE | GED D3 :|
|: g2g ged | cAB c2d | eaa age | ed^c def
 | g2g ged | cAB cde | fed cAG | EAA A3 :|
%
|: cBc A2G | EcB cde | dcA A2G | cde fed
 | cBc A2G | EcB cde | dcA AGE | GED D3 :|
|: g2g ged | cAB c2d | eaa age | ed^c def
 | g2g ged | cAB cde | fed cAG | EAA A3 :|
%
%T:Cathal McConnell's
%T:The Cock and the Hen (d'après François)
M:9/8
K:A
|: F2F FEF c2A | F2F FEF AFE | F2F FEF c2d | ecA BAF AFE :|
|: ecA ABc dfa | ecA ABc BAF | ecA ABc dcB | cBA BAF AFE :|
%
|: F2F FEF c2A | F2F FEF AFE | F2F FEF c2d | ecA BAF AFE :|
|: ecA ABc dfa | ecA ABc BAF | ecA ABc dcB | cBA BAF AFE :|
%
|: F2F FEF c2A | F2F FEF AFE | F2F FEF c2d | ecA BAF AFE :|
|: ecA ABc dfa | ecA ABc BAF | ecA ABc dcB | cBA BAF AFE :|
%
%T:The Woods of the Old Limerick
M:6/8
K:G
|: BAG ABc | dBg fdc | BAG ABc | ADD DFA
 | BAG ABc | dBg fdc | BAG ABc |1 A/B/A/G/F G2A :|2 A/B/A/G/F G2a
|: bgg gag | fdd d2b | c'aa fab | c'af g2a
 | bgg agf | gag edc | BAG ABc |1 A/B/A/G/F G2a :|2 A/B/A/G/F G3 |]
%
|: BAG ABc | dBg fdc | BAG ABc | ADD DFA
 | BAG ABc | dBg fdc | BAG ABc |1 A/B/A/G/F G2A :|2 A/B/A/G/F G2a
|: bgg gag | fdd d2b | c'aa fab | c'af g2a
 | bgg agf | gag edc | BAG ABc |1 A/B/A/G/F G2a :|2 A/B/A/G/F G3 |]
%
|: BAG ABc | dBg fdc | BAG ABc | ADD DFA
 | BAG ABc | dBg fdc | BAG ABc |1 A/B/A/G/F G2A :|2 A/B/A/G/F G2a
|: bgg gag | fdd d2b | c'aa fab | c'af g2a
 | bgg agf | gag edc | BAG ABc |1 A/B/A/G/F G2a :|2 A/B/A/G/F G3 |]

